X: 30657
T: Oot An' In Da Hairbour
R: reel
M: 4/4
K: Amixolydian
A|EAce AecA|EAcA dBcA|EAce Aece|dfed cA A:|
e|eaec efec|eaec dBBe|eaec efce|afed cAA:|

